X: 81
T: No_1_Song_of_Coyote_After_the_Flood.krn
N: Derived from No_1_Song_of_Coyote_After_the_Flood.krn
%%abc-version 2.0
%%abcx-abcm2ps-target-version 5.9.1 (29 Sep 2008)
%%abc-creator hum2abc beta
%%abcx-conversion-date 2019/03/15 08:37:56
%%humdrum-veritas 3738001069
%%humdrum-veritas-data 1363303115
%%linebreak <none>
%%barnumbers 0
L: 1/16
M: 3/8
K: Ab clef=bass
[K:clef=bass][M:3/8]z2 E,2E,2 | 
C4A,2 ||  
[M:2/8]B,3A, | 
B,A,A,F, ||  
[M:3/8]F,F,F,2F,2 | 
F,4C,C, ||  
[M:2/8]F,3C, ||  
[M:3/8]F,4z2 ||  
[M:2/8]F,2F,2 ||  
[M:3/8]C4A,2 ||  
[M:2/8]A,3G, | 
A,G,G,F, ||  
[M:3/8]F,F,F,2F,2 | 
F,4C,C, ||  
[M:2/8]F,4 ||  
[M:3/8]F,4z2 ]|:  
[M:2/8]A,3G, ||  
[M:3/8]A,2A,2A,2 ||  
[M:2/8]A,4 ||  
[M:3/8]A,4A,2 ||  
[M:2/8]G,3F, | 
G,3F, ||  
[M:3/8]F,4C, z ||  
[M:2/8]G,3F, ||  
[M:3/8]F,4D,2 ||  
[M:2/8]F,3D, ||  
[M:3/8]F,4C, z :|]  



